public/images/hashed/145f88b1703d5f2aa94b220fbd96fd2e.svg

<?xml version="1.0" encoding="UTF-8"?>
<svg width="80px" height="80px" viewBox="0 0 80 80" version="1.1" xmlns="http://www.w3.org/2000/svg" xmlns:xlink="http://www.w3.org/1999/xlink">
    <!-- Generator: Sketch 64 (93537) - https://sketch.com -->
    <title>Icon-Architecture/64/Arch_AWS-Application-Discovery-Service_64</title>
    <desc>Created with Sketch.</desc>
    <defs>
        <linearGradient x1="0%" y1="100%" x2="100%" y2="0%" id="linearGradient-1">
            <stop stop-color="#055F4E" offset="0%"></stop>
            <stop stop-color="#56C0A7" offset="100%"></stop>
        </linearGradient>
    </defs>
    <g id="Icon-Architecture/64/Arch_AWS-Application-Discovery-Service_64" stroke="none" stroke-width="1" fill="none" fill-rule="evenodd">
        <g id="Icon-Architecture-BG/64/Migration-Transfer" fill="url(#linearGradient-1)">
            <rect id="Rectangle" x="0" y="0" width="80" height="80"></rect>
        </g>
        <path d="M65.261848,59.9942838 L51.9028393,47.0769011 C50.6049977,48.8134903 49.0554413,50.3530126 47.3085405,51.6434505 L60.3433405,64.8979475 C60.9786687,65.5281613 61.7358269,65.5851807 62.2563731,65.5181579 C63.0588399,65.4161233 63.8925194,64.9709723 64.6043689,64.2637323 C65.3202458,63.552491 65.7743393,62.7172076 65.8820733,61.9109341 C65.9525534,61.3867562 65.9022105,60.6294993 65.261848,59.9942838 L65.261848,59.9942838 Z M54.1692795,33.9884604 C54.1692795,23.0107358 45.1810469,14.0797056 34.1317734,14.0797056 C23.0824999,14.0797056 14.0942673,23.0107358 14.0942673,33.9884604 C14.0942673,44.966185 23.0824999,53.8972151 34.1317734,53.8972151 C45.1810469,53.8972151 54.1692795,44.966185 54.1692795,33.9884604 L54.1692795,33.9884604 Z M67.9572102,62.1850271 C67.7880579,63.4424537 67.1235308,64.7028813 66.084452,65.7342313 C65.0463801,66.7655812 63.780758,67.4218038 62.5201702,67.5808578 C62.3167846,67.6068666 62.1154128,67.619871 61.9170615,67.619871 C60.7531322,67.619871 59.6838477,67.183723 58.8552025,66.3594434 L45.5415025,52.8218503 C42.2077915,54.8235294 38.3031913,55.9769207 34.1317734,55.9769207 C21.9286392,55.9769207 12,46.1135742 12,33.9884604 C12,21.8633465 21.9286392,12 34.1317734,12 C46.3349076,12 56.2635468,21.8633465 56.2635468,33.9884604 C56.2635468,38.1318662 55.1036449,42.0091817 53.0899264,45.3213054 L66.7328694,58.5137815 C67.7135503,59.4871117 68.144486,60.7875529 67.9572102,62.1850271 L67.9572102,62.1850271 Z M48.1875287,33.9884604 C48.1875287,26.1578035 42.0134677,20.022722 34.1317734,20.022722 C26.2500791,20.022722 20.0760181,26.1578035 20.0760181,33.9884604 C20.0760181,41.8191172 26.2500791,47.9531984 34.1317734,47.9531984 C42.0134677,47.9531984 48.1875287,41.8191172 48.1875287,33.9884604 L48.1875287,33.9884604 Z M50.2817959,33.9884604 C50.2817959,42.9855129 43.1874656,50.032904 34.1317734,50.032904 C25.0760812,50.032904 17.9817509,42.9855129 17.9817509,33.9884604 C17.9817509,24.9914078 25.0760812,17.9430164 34.1317734,17.9430164 C43.1874656,17.9430164 50.2817959,24.9914078 50.2817959,33.9884604 L50.2817959,33.9884604 Z M41.1797882,24.9854058 L26.0768993,24.9854058 L26.0768993,26.9860846 L40.1729289,26.9860846 L40.1729289,42.991515 L42.1866475,42.991515 L42.1866475,25.9857452 C42.1866475,25.4335578 41.7365814,24.9854058 41.1797882,24.9854058 L41.1797882,24.9854058 Z M26.0768993,42.991515 L38.1592104,42.991515 L38.1592104,40.9908362 L26.0768993,40.9908362 L26.0768993,42.991515 Z M23.0563215,37.989818 L38.1592104,37.989818 L38.1592104,35.9891392 L23.0563215,35.9891392 L23.0563215,37.989818 Z M38.1592104,65.9993212 L20.0357438,65.9993212 L20.0357438,53.9952484 L18.0220252,53.9952484 L18.0220252,66.9996606 C18.0220252,67.5518479 18.4720913,68 19.0288845,68 L39.1660697,68 C39.7228629,68 40.1729289,67.5518479 40.1729289,66.9996606 L40.1729289,58.9969454 L38.1592104,58.9969454 L38.1592104,65.9993212 Z M23.0563215,31.9877816 L37.9356877,31.9877816 L37.9356877,29.9871028 L23.0563215,29.9871028 L23.0563215,31.9877816 Z" id="AWS-Application-Discovery-Service_Icon_64_Squid" fill="#FFFFFF"></path>
    </g>
</svg>

<svg xmlns="http://www.w3.org/2000/svg" width="80" height="80"><defs><linearGradient id="a" x1="0%" x2="100%" y1="100%" y2="0%"><stop offset="0%" stop-color="#055F4E"/><stop offset="100%" stop-color="#56C0A7"/></linearGradient></defs><g fill="none" fill-rule="evenodd"><path fill="url(#a)" d="M0 0h80v80H0z"/><path fill="#FFF" d="m65.262 59.994-13.36-12.917a22.215 22.215 0 0 1-4.593 4.566l13.034 13.255c.636.63 1.393.687 1.913.62.803-.102 1.637-.547 2.348-1.254.716-.712 1.17-1.547 1.278-2.353.07-.524.02-1.282-.62-1.917ZM54.169 33.988c0-10.977-8.988-19.908-20.037-19.908-11.05 0-20.038 8.93-20.038 19.908 0 10.978 8.988 19.91 20.038 19.91 11.049 0 20.037-8.932 20.037-19.91Zm13.788 28.197c-.169 1.257-.833 2.518-1.873 3.55-1.038 1.03-2.303 1.687-3.564 1.846a4.755 4.755 0 0 1-.603.039 4.274 4.274 0 0 1-3.062-1.26L45.542 52.821a22.098 22.098 0 0 1-11.41 3.155C21.929 55.977 12 46.114 12 33.988 12 21.863 21.929 12 34.132 12c12.203 0 22.132 9.863 22.132 21.988 0 4.144-1.16 8.021-3.174 11.333l13.643 13.193c.98.973 1.411 2.274 1.224 3.671Zm-19.77-28.197c0-7.83-6.174-13.965-14.055-13.965-7.882 0-14.056 6.135-14.056 13.965 0 7.831 6.174 13.965 14.056 13.965 7.881 0 14.056-6.134 14.056-13.965Zm2.095 0c0 8.998-7.095 16.045-16.15 16.045-9.056 0-16.15-7.047-16.15-16.045 0-8.997 7.094-16.045 16.15-16.045 9.055 0 16.15 7.048 16.15 16.045Zm-9.102-9.003H26.077v2.001h14.096v16.006h2.014V25.986c0-.552-.45-1-1.007-1ZM26.077 42.992h12.082V40.99H26.077v2Zm-3.02-5.002h15.102v-2H23.056v2ZM38.158 66H20.036V53.994h-2.014V67c0 .552.45 1 1.007 1h20.137c.557 0 1.007-.448 1.007-1v-8.003h-2.014v7.002ZM23.056 31.987h14.88v-2h-14.88v2Z"/></g></svg>
